!!!OTL: Homeward Bound
!!!ONM: 37.
**kern
*clefG2
*k[]
*C:
!Referent unclear -- Conklin/Pearce 
*M6/8
*MM54
{8g
=1
(8c
8e)
8g
4g
8g
=2
8a
8a
8g
4e}	
{8g
=3
8g
8.f
16f
4f}
{8a
=4
8a
8.g
16e
4g}
{8g
=5
4e
8g
4g
8g
=6
8a
8b
8cc
4g}
8cc
=7
4cc
8a
4b
8a
=8
4b
8a
4g}
==
*-
!!!CNT: Folksongs of Maritime Canada
!!!MRD: 1928///-1932///
!!!OCL: Helen Creighton
!!!YOR: Songs and Ballads from Nova Scotia
!!!PPR: J.M. Dent & Sons, Limited
!!!PPP: Toronto, Canada
!!!PDT: 1932///
!!!reprint: Dover Publications, 1992: ISBN 0-486-21703-5
!!!ENC1: Craig Stuart Sapp (music and bibliographic data)                       
!!!ENC2: Marcus Pearce (phrase markings and key designations)                   
!!!ENC3: Darrell Conklin (phrase markings and key designations)   
!!!END: 2002/04/10/
!!!EEV: 2004/06/05
!!!MPN: Mr. Ben Henneberry
!!!PPG: 75
!!!EFL: 37/152
!!!ARE: Canada; Nova Scotia
!!!verses: 5
!!!VTS: 599491430
